X: 49
T: Gasp\'e Reel
M: 4/4
K: D
L: 1/8
|: "D" f2 (ef) "A" e2 d2 | AAFA "G" B2 "D" A2 | "G" g2 (fg) "D" f2 e2 | "G" BABc B2 "D" A2 | "D" f2 (ef) "A" e2 "D" d2
"A" AAFA "G" B2 "A" A2 | "G" g2 (fg) "D" feed | "G" B2 "A" c2 "D" d2 z2 :|: "A" e2 f2 "A7" g2 fe | "D" f2 g2 a4 |
"A" e2 f2 "A7" g2 (fe) | "G" BABc "G" B2 "D" A2 | "A" e2 f2 "A7" g2 fe | "D" f2 g2 a4 |
|1 "A" e2 f2 g2 fe | "G" B2 "A" c2 "D" d4 :|2 "G" b2 a2 gfed | "Aw/B" B2 c2 "D" d4 |]
W: Nice w/harmonica (start on high F#).  Somewhat tricky.

